X: 152
T:The Stage Hornpipe
R:hornpipe
Z:added by Alf Warnock - alf0@rogers.com - www.alfwarnock.info/alfs from a photocopy lying around the house
Z:not the same as hn-hornpipe-77
M:4/4
L:1/8
K:G
GA|"G"BGFG (3EFG DB,|G,B,DB "Am"cBAE|A^GAB cBcB|"D7"(3AGF (3GFE (3DCB,(3CB,A,|
"G"G,B,DB "C" cBcd|e^def ga (3gfe|"G"db "Am" ca "G" Bgfg|"D7"ecAF "G" G3A:|
"G"ga (3gfe dgbd|"Am"ceac "G" Bdgd|BGDG "Am"(3cBA ag|fgfe "D7"defd|
"G"ga (3gfe dgbc|"Am"Bcac "G"Bdgd|(3gag (3fgf "Am" egfg|"D7"ecAF "G" G2:|
